src/images/enterprise-03.svg

<svg xmlns="http://www.w3.org/2000/svg" width="250" height="291" fill="none" viewBox="0 0 250 291"><path fill="#F7A501" fill-rule="evenodd" d="M19.1786 10.9001H230.143C234.045 10.9001 237.788 12.4497 240.548 15.208C243.307 17.9663 244.857 21.7074 244.857 25.6082V237.424C244.851 241.324 243.299 245.063 240.541 247.822C237.784 250.58 234.045 252.135 230.143 252.144H19.1786C15.2751 252.141 11.5325 250.589 8.77336 247.829C6.01424 245.068 4.46435 241.326 4.46436 237.424V25.6082C4.46436 23.6767 4.84496 21.7642 5.58442 19.9797C6.32389 18.1952 7.40774 16.5738 8.77409 15.208C10.1404 13.8423 11.7625 12.7589 13.5477 12.0197C15.3329 11.2806 17.2463 10.9001 19.1786 10.9001V10.9001Z" clip-rule="evenodd"/><path fill="#fff" d="M197.881 120.045C192.221 105.104 182.146 92.2386 168.995 83.1595C155.844 74.0805 140.239 69.2178 124.256 69.2178C108.273 69.2178 92.6688 74.0805 79.5174 83.1595C66.3661 92.2386 56.2908 105.104 50.6311 120.045C39.1067 123.121 29.0923 130.277 22.4503 140.181C15.8083 150.084 12.9909 162.063 14.522 173.887C16.0531 185.712 21.8285 196.578 30.7741 204.466C39.7197 212.353 51.2267 216.724 63.1549 216.766H185.25C197.188 216.75 208.712 212.397 217.677 204.518C226.642 196.639 232.437 185.772 233.982 173.94C235.527 162.108 232.718 150.118 226.076 140.203C219.435 130.288 209.414 123.124 197.881 120.045ZM206.857 189.171C204.038 192.02 200.68 194.281 196.979 195.821C193.278 197.362 189.307 198.151 185.298 198.143H63.1549C57.4378 198.139 51.8367 196.53 46.9898 193.499C42.1428 190.468 38.2448 186.138 35.7398 181.001C33.2347 175.864 32.2233 170.127 32.8208 164.443C33.4183 158.76 35.6006 153.358 39.1192 148.854C43.2552 143.622 48.9716 139.865 55.4168 138.144L64.7383 135.705L68.1669 126.732C70.2889 121.124 73.2469 115.868 76.9407 111.144C82.5437 103.937 89.7189 98.1045 97.9193 94.0904C106.12 90.0763 115.129 87.9867 124.259 87.9809C133.39 87.9752 142.402 90.0535 150.607 94.0573C158.813 98.0611 165.995 103.885 171.607 111.084C175.298 115.815 178.256 121.074 180.381 126.685L183.774 135.657L193.084 138.109C198.263 139.497 202.987 142.223 206.779 146.013C210.572 149.802 213.301 154.523 214.691 159.7C216.082 164.877 216.086 170.329 214.703 175.508C213.319 180.687 210.597 185.411 206.81 189.206L206.857 189.171Z"/><path fill="#fff" fill-rule="evenodd" stroke="#35416B" stroke-linecap="round" stroke-linejoin="round" d="M189.595 139.073C192.579 144.039 195.806 148.842 199.274 153.483C200.036 154.483 208.476 150.02 210.191 152.924C211.905 155.827 209 159.374 209.762 160.968C213.333 168.465 211.464 185.506 211.464 185.506L218.143 186.85L225.726 179.449L219.143 172.737L222.845 165.383L231.5 164.383L231.369 152.484L224.476 150.556L222.095 153.483L219.036 148.176L225.607 140.441L217.964 132.873L211.369 131.005L210.786 140.751L202.322 138.371L200.917 128.518L194.107 126.899L188.774 130.1L189.595 139.073Z" clip-rule="evenodd"/><path fill="#35416B" fill-rule="evenodd" stroke="#35416B" stroke-linecap="round" stroke-linejoin="round" d="M182.797 137.407C182.797 137.407 189.25 139.251 196 148.545C196.762 149.544 201.655 148.378 203.357 151.258C205.059 154.138 202.166 157.719 202.928 159.314C206.683 167.608 209.479 176.304 211.262 185.232L218.857 177.83L212.262 171.13L215.976 163.765L224.631 162.705L224.5 150.806L215.214 151.793L212.167 146.498L218.738 138.739L211.095 131.135L203.952 139.108L195.547 136.669L194.143 126.828L182.012 128.375L182.797 137.407Z" clip-rule="evenodd"/><path fill="#fff" fill-rule="evenodd" stroke="#fff" stroke-linecap="round" stroke-linejoin="round" d="M54.9643 121.056L47.6667 121.187L44.7738 123.781L47.7619 127.768L41.8096 129.458L37.2024 125.745L31.1429 131.695L35.7738 136.455L34.4167 140.751H28.9405L26.5596 143.416L28.9405 148.081L35.2858 148.247L36.7143 151.246L31.6072 156.839L35.6786 165.371L41.7738 158.088L45.762 159.838L45.9524 166.18L50.4405 168.62L53.2739 166.145L53.6548 160.064L56.8929 158.065L60.881 162.301L66.7381 156.803L62.75 152.151L64.3095 148.854L68.2143 150.734L71.0477 148.628V141.215L64.7143 140.429L63.1548 135.062L67.8334 130.79L62.1667 125.721L57.7143 129.957L55.5596 128.886L54.9643 121.056ZM49.7977 136.371C50.7602 136.337 51.7188 136.511 52.6072 136.883C53.5176 137.255 54.3317 137.829 54.9881 138.561C55.6312 139.274 56.1034 140.125 56.3691 141.048C56.6399 141.975 56.7049 142.949 56.5596 143.904C56.3231 145.518 55.4896 146.986 54.2238 148.016C52.9579 149.046 51.3517 149.565 49.7222 149.469C48.0926 149.373 46.5582 148.67 45.4217 147.499C44.2852 146.328 43.6293 144.773 43.5834 143.142V142.904C43.5623 141.646 43.9138 140.41 44.5938 139.352C45.2738 138.293 46.2518 137.459 47.4048 136.954C48.1575 136.627 48.9654 136.446 49.7858 136.419L49.7977 136.371Z" clip-rule="evenodd"/><path fill="#35416B" fill-rule="evenodd" stroke="#fff" stroke-linecap="round" stroke-linejoin="round" d="M51.9761 123.734L44.7023 123.865L44.8095 130.481L38.7499 132.194L34.1428 128.482L28.0714 134.432L32.7023 139.192L31.3452 143.475H25.8809V150.794L32.2142 150.96L33.6428 153.959L28.4999 159.564L34.6308 165.514L38.6785 160.754L42.6665 162.515L42.8332 168.846H50.1547L50.5356 162.765L53.7856 160.766L57.7737 165.002L63.6427 159.504L59.6547 154.864L61.2261 151.544L67.9523 151.329V143.975L61.6071 143.19L60.0713 137.811L64.7618 133.527L59.1309 128.422L54.6427 132.623L52.488 131.623L51.9761 123.734ZM46.8095 139.037C47.8546 138.992 48.8952 139.2 49.843 139.643C50.7908 140.085 51.618 140.75 52.2545 141.579C52.8911 142.409 53.3182 143.38 53.4998 144.41C53.6814 145.44 53.6121 146.498 53.2979 147.496C52.9836 148.493 52.4335 149.4 51.6942 150.14C50.955 150.88 50.0482 151.431 49.0508 151.746C48.0534 152.062 46.9947 152.132 45.9642 151.952C44.9337 151.772 43.9618 151.346 43.1308 150.711C42.3689 150.126 41.7434 149.383 41.2975 148.533C40.8547 147.682 40.6067 146.743 40.5714 145.784V145.546C40.5488 143.858 41.1918 142.229 42.3614 141.011C43.5309 139.793 45.133 139.084 46.8214 139.037H46.8095Z" clip-rule="evenodd"/><path fill="#F7A501" fill-rule="evenodd" stroke="#fff" stroke-linecap="round" stroke-linejoin="round" d="M111.857 199.512L112.857 181.352L93.0714 152.055L92.7618 77.4556L75.3451 59.606L74.7261 160.159L111.857 199.512Z" clip-rule="evenodd"/><path fill="#fff" fill-rule="evenodd" stroke="#fff" stroke-linecap="round" stroke-linejoin="round" d="M168.131 76.8606H92.8213V151.996H168.155L168.131 76.8606Z" clip-rule="evenodd"/><path fill="#fff" fill-rule="evenodd" stroke="#F7A501" stroke-linecap="round" stroke-linejoin="round" d="M168.94 152.329L187.798 181.043L112.798 181.864L92.4048 152.234L168.94 152.329Z" clip-rule="evenodd"/><path fill="#F7A501" fill-rule="evenodd" stroke="#fff" stroke-linecap="round" stroke-linejoin="round" d="M187.905 180.984L187.595 199.345L112.333 199.5L112.488 181.471L187.905 180.984Z" clip-rule="evenodd"/><path fill="#fff" fill-rule="evenodd" d="M168.941 77.3485L149.691 58.6897L75.3931 59.3204L92.5716 77.2771L168.941 77.3485Z" clip-rule="evenodd"/><path fill="#35416B" fill-rule="evenodd" stroke="#F7A501" stroke-linecap="round" stroke-linejoin="round" d="M101.845 82.2155H159.048C159.512 82.2144 159.972 82.2991 160.405 82.4653C160.847 82.6396 161.252 82.8983 161.595 83.2269C161.931 83.5699 162.197 83.9738 162.381 84.4169C162.56 84.8469 162.653 85.3078 162.655 85.7735V143.261C162.655 143.727 162.562 144.188 162.381 144.618C162.199 145.062 161.932 145.466 161.595 145.808C161.258 146.141 160.851 146.397 160.405 146.558C159.974 146.732 159.513 146.821 159.048 146.819H101.845C100.914 146.82 100.02 146.457 99.3531 145.808C98.686 145.159 98.2988 144.275 98.2739 143.345V85.7021C98.2739 85.2362 98.367 84.775 98.5477 84.3455C98.8291 83.7073 99.2914 83.1655 99.8775 82.7869C100.464 82.4084 101.148 82.2097 101.845 82.2155V82.2155Z" clip-rule="evenodd"/><path fill="#fff" fill-rule="evenodd" stroke="#fff" stroke-linecap="round" stroke-linejoin="round" d="M119.214 84.9881H156.679C157.15 84.987 157.616 85.0789 158.051 85.2586C158.486 85.4383 158.882 85.7023 159.214 86.0353C159.549 86.3762 159.813 86.7809 159.988 87.2253C160.171 87.658 160.26 88.1243 160.25 88.5937V140.703C160.25 141.65 159.874 142.558 159.204 143.227C158.534 143.897 157.626 144.273 156.679 144.273H119.214C118.267 144.273 117.359 143.897 116.689 143.227C116.019 142.558 115.643 141.65 115.643 140.703V88.5343C115.644 88.0608 115.737 87.592 115.917 87.1539C116.093 86.7095 116.356 86.3048 116.691 85.9639C117.033 85.6279 117.437 85.3612 117.881 85.1785C118.316 85.0022 118.781 84.9133 119.25 84.9167L119.214 84.9881Z" clip-rule="evenodd"/><path fill="#fff" fill-rule="evenodd" d="M119.762 92.7587L146.702 92.6992L119.762 92.7587Z" clip-rule="evenodd"/><path stroke="#F7A501" stroke-linecap="round" stroke-linejoin="round" d="M119.762 92.7587L146.702 92.6992"/><path fill="#fff" fill-rule="evenodd" d="M119.917 95.9836L146.857 95.9241L119.917 95.9836Z" clip-rule="evenodd"/><path stroke="#F7A501" stroke-linecap="round" stroke-linejoin="round" d="M119.917 95.9836L146.857 95.9241"/><path fill="#fff" fill-rule="evenodd" d="M119.762 99.5653L146.702 99.4939L119.762 99.5653Z" clip-rule="evenodd"/><path stroke="#F7A501" stroke-linecap="round" stroke-linejoin="round" d="M119.762 99.5653L146.702 99.4939"/><path fill="#fff" fill-rule="evenodd" d="M119.762 103.23L146.702 103.159L119.762 103.23Z" clip-rule="evenodd"/><path stroke="#F7A501" stroke-linecap="round" stroke-linejoin="round" d="M119.762 103.23L146.702 103.159"/><path fill="#fff" fill-rule="evenodd" stroke="#F7A501" stroke-linecap="round" stroke-linejoin="round" d="M123.619 106.301H143.571C144.045 106.302 144.514 106.395 144.952 106.574C145.825 106.937 146.518 107.63 146.881 108.502C147.066 108.938 147.159 109.408 147.155 109.883V132.492C147.156 132.963 147.064 133.429 146.884 133.864C146.704 134.299 146.44 134.694 146.107 135.027C145.775 135.362 145.38 135.628 144.945 135.81C144.51 135.992 144.043 136.085 143.571 136.086H123.619C122.672 136.086 121.763 135.71 121.093 135.04C120.424 134.371 120.047 133.463 120.047 132.516V109.906C120.047 108.959 120.424 108.051 121.093 107.382C121.763 106.712 122.672 106.336 123.619 106.336V106.301Z" clip-rule="evenodd"/><path fill="#fff" fill-rule="evenodd" stroke="#F7A501" stroke-linecap="round" stroke-linejoin="round" d="M102.964 98.1375H110.941C111.178 98.1409 111.406 98.2296 111.584 98.3873C111.668 98.471 111.734 98.5727 111.774 98.6848C111.822 98.7937 111.846 98.9112 111.845 99.0299C111.846 99.1448 111.822 99.2585 111.774 99.3631C111.736 99.4767 111.671 99.579 111.584 99.6606C111.501 99.7413 111.404 99.8059 111.298 99.851C111.189 99.8985 111.071 99.9228 110.953 99.9224H103.036C102.917 99.9228 102.8 99.8985 102.691 99.851C102.584 99.8059 102.488 99.7413 102.405 99.6606C102.242 99.4906 102.148 99.2655 102.143 99.0299C102.155 98.7957 102.247 98.5728 102.405 98.3992C102.572 98.2318 102.799 98.1377 103.036 98.1375H102.964Z" clip-rule="evenodd"/><path fill="#fff" fill-rule="evenodd" stroke="#F7A501" stroke-linecap="round" stroke-linejoin="round" d="M103.167 102.326H111.155C111.273 102.316 111.392 102.337 111.5 102.386C111.61 102.431 111.711 102.495 111.798 102.576C111.875 102.663 111.936 102.764 111.976 102.874C112.024 102.982 112.048 103.1 112.048 103.219C112.048 103.453 111.955 103.679 111.791 103.846C111.626 104.013 111.402 104.108 111.167 104.111H103.179C102.944 104.108 102.72 104.013 102.555 103.846C102.39 103.679 102.298 103.453 102.298 103.219C102.269 103.105 102.269 102.987 102.298 102.874C102.337 102.763 102.397 102.662 102.476 102.576C102.549 102.489 102.643 102.423 102.75 102.386C102.856 102.329 102.975 102.3 103.095 102.302L103.167 102.326Z" clip-rule="evenodd"/><path fill="#fff" fill-rule="evenodd" stroke="#F7A501" stroke-linecap="round" stroke-linejoin="round" d="M103.167 106.979H111.155C111.391 106.979 111.618 107.073 111.786 107.241C111.951 107.409 112.045 107.635 112.048 107.871C112.047 108.108 111.953 108.335 111.786 108.502C111.706 108.587 111.609 108.652 111.5 108.692C111.391 108.739 111.273 108.763 111.155 108.764H103.167C102.932 108.761 102.708 108.665 102.543 108.498C102.378 108.331 102.286 108.106 102.286 107.871C102.285 107.756 102.31 107.643 102.357 107.538C102.39 107.426 102.457 107.327 102.548 107.253C102.626 107.165 102.724 107.095 102.833 107.05C102.938 107.004 103.052 106.98 103.167 106.979V106.979Z" clip-rule="evenodd"/><path fill="#fff" fill-rule="evenodd" stroke="#F7A501" stroke-linecap="round" stroke-linejoin="round" d="M103.036 111.37H111.012C111.243 111.383 111.461 111.476 111.631 111.632C111.798 111.805 111.895 112.034 111.905 112.274C111.892 112.508 111.799 112.73 111.643 112.905C111.56 112.986 111.464 113.05 111.357 113.095C111.243 113.118 111.126 113.118 111.012 113.095H103.036C102.922 113.119 102.805 113.119 102.691 113.095C102.584 113.05 102.488 112.986 102.405 112.905C102.24 112.736 102.146 112.51 102.143 112.274C102.143 112.156 102.167 112.038 102.214 111.929C102.255 111.817 102.32 111.715 102.405 111.632C102.575 111.468 102.8 111.375 103.036 111.37V111.37Z" clip-rule="evenodd"/><path fill="#fff" fill-rule="evenodd" stroke="#F7A501" stroke-linecap="round" stroke-linejoin="round" d="M103.036 116.177H111.012C111.131 116.178 111.248 116.202 111.357 116.249C111.464 116.294 111.56 116.359 111.643 116.439C111.801 116.613 111.893 116.836 111.905 117.07C111.905 117.307 111.811 117.534 111.643 117.701C111.476 117.868 111.249 117.962 111.012 117.962H103.036C102.799 117.962 102.572 117.868 102.405 117.701C102.237 117.534 102.143 117.307 102.143 117.07C102.143 116.951 102.167 116.834 102.214 116.725C102.255 116.616 102.32 116.518 102.405 116.439C102.488 116.359 102.584 116.294 102.691 116.249C102.8 116.201 102.917 116.177 103.036 116.177V116.177Z" clip-rule="evenodd"/></svg>

<svg fill="none" viewBox="0 0 250 291"><path fill="#F7A501" fill-rule="evenodd" d="M19.179 10.9h210.964a14.706 14.706 0 0114.714 14.708v211.816a14.74 14.74 0 01-4.316 10.398 14.751 14.751 0 01-10.398 4.322H19.179a14.72 14.72 0 01-14.714-14.72V25.608a14.703 14.703 0 019.083-13.588 14.72 14.72 0 015.63-1.12z" clip-rule="evenodd"/><path fill="#fff" d="M197.881 120.045a78.702 78.702 0 00-28.886-36.886 78.75 78.75 0 00-89.478 0 78.7 78.7 0 00-28.886 36.886 49.212 49.212 0 00-28.18 20.136 49.175 49.175 0 008.323 64.285 49.226 49.226 0 0032.38 12.3H185.25a49.22 49.22 0 0032.427-12.248 49.175 49.175 0 008.399-64.315 49.212 49.212 0 00-28.195-20.158zm8.976 69.126a30.241 30.241 0 01-21.559 8.972H63.155a30.528 30.528 0 01-27.415-17.142 30.5 30.5 0 013.38-32.147 30.955 30.955 0 0116.297-10.71l9.321-2.439 3.429-8.973a59.481 59.481 0 018.774-15.588A59.966 59.966 0 0197.919 94.09a60 60 0 0152.688-.033 59.97 59.97 0 0129.774 32.628l3.393 8.972 9.31 2.452a30.567 30.567 0 0121.607 21.591 30.548 30.548 0 01-7.881 29.506l.047-.035z"/><path fill="#fff" fill-rule="evenodd" stroke="#35416B" stroke-linecap="round" stroke-linejoin="round" d="M189.595 139.073a172.399 172.399 0 009.679 14.41c.762 1 9.202-3.463 10.917-.559 1.714 2.903-1.191 6.45-.429 8.044 3.571 7.497 1.702 24.538 1.702 24.538l6.679 1.344 7.583-7.401-6.583-6.712 3.702-7.354 8.655-1-.131-11.899-6.893-1.928-2.381 2.927-3.059-5.307 6.571-7.735-7.643-7.568-6.595-1.868-.583 9.746-8.464-2.38-1.405-9.853-6.81-1.619-5.333 3.201.821 8.973z" clip-rule="evenodd"/><path fill="#35416B" fill-rule="evenodd" stroke="#35416B" stroke-linecap="round" stroke-linejoin="round" d="M182.797 137.407s6.453 1.844 13.203 11.138c.762.999 5.655-.167 7.357 2.713s-1.191 6.461-.429 8.056a119.663 119.663 0 018.334 25.918l7.595-7.402-6.595-6.7 3.714-7.365 8.655-1.06-.131-11.899-9.286.987-3.047-5.295 6.571-7.759-7.643-7.604-7.143 7.973-8.405-2.439-1.404-9.841-12.131 1.547.785 9.032z" clip-rule="evenodd"/><path fill="#fff" fill-rule="evenodd" stroke="#fff" stroke-linecap="round" stroke-linejoin="round" d="M54.964 121.056l-7.297.131-2.893 2.594 2.988 3.987-5.952 1.69-4.608-3.713-6.06 5.95 4.632 4.76-1.357 4.296H28.94l-2.38 2.665 2.38 4.665 6.346.166 1.428 2.999-5.107 5.593 4.072 8.532 6.095-7.283 3.988 1.75.19 6.342 4.489 2.44 2.833-2.475.38-6.081 3.239-1.999 3.988 4.236 5.857-5.498-3.988-4.652 1.56-3.297 3.904 1.88 2.834-2.106v-7.413l-6.334-.786-1.56-5.367 4.68-4.272-5.667-5.069-4.453 4.236-2.154-1.071-.596-7.83zm-5.166 15.315a6.664 6.664 0 012.81.512c.91.372 1.724.946 2.38 1.678a6.327 6.327 0 011.381 2.487c.27.927.336 1.901.19 2.856a6.521 6.521 0 01-6.837 5.565 6.52 6.52 0 01-6.139-6.327v-.238a6.384 6.384 0 016.202-6.485l.013-.048z" clip-rule="evenodd"/><path fill="#35416B" fill-rule="evenodd" stroke="#fff" stroke-linecap="round" stroke-linejoin="round" d="M51.976 123.734l-7.274.131.108 6.616-6.06 1.713-4.607-3.712-6.072 5.95 4.631 4.76-1.357 4.283h-5.464v7.319l6.333.166 1.429 2.999-5.143 5.605 6.13 5.95 4.048-4.76 3.989 1.761.166 6.331h7.322l.38-6.081 3.25-1.999 3.989 4.236 5.869-5.498-3.988-4.64 1.571-3.32 6.726-.215v-7.354l-6.345-.785-1.536-5.379 4.69-4.284-5.63-5.105-4.488 4.201-2.155-1-.512-7.889zm-5.166 15.303a6.512 6.512 0 016.69 5.373 6.51 6.51 0 01-10.37 6.301 6.628 6.628 0 01-1.833-2.178 6.471 6.471 0 01-.726-2.749v-.238a6.423 6.423 0 016.25-6.509h-.011z" clip-rule="evenodd"/><path fill="#F7A501" fill-rule="evenodd" stroke="#fff" stroke-linecap="round" stroke-linejoin="round" d="M111.857 199.512l1-18.16-19.786-29.297-.31-74.6-17.416-17.849-.619 100.553 37.131 39.353z" clip-rule="evenodd"/><path fill="#fff" fill-rule="evenodd" stroke="#fff" stroke-linecap="round" stroke-linejoin="round" d="M168.131 76.86h-75.31v75.136h75.334l-.024-75.135z" clip-rule="evenodd"/><path fill="#fff" fill-rule="evenodd" stroke="#F7A501" stroke-linecap="round" stroke-linejoin="round" d="M168.94 152.329l18.858 28.714-75 .821-20.393-29.63 76.535.095z" clip-rule="evenodd"/><path fill="#F7A501" fill-rule="evenodd" stroke="#fff" stroke-linecap="round" stroke-linejoin="round" d="M187.905 180.984l-.31 18.361-75.262.155.155-18.029 75.417-.487z" clip-rule="evenodd"/><path fill="#fff" fill-rule="evenodd" d="M168.941 77.349l-19.25-18.66-74.298.631 17.179 17.957 76.369.072z" clip-rule="evenodd"/><path fill="#35416B" fill-rule="evenodd" stroke="#F7A501" stroke-linecap="round" stroke-linejoin="round" d="M101.845 82.216h57.203c.464-.002.924.083 1.357.25.442.174.847.432 1.19.76.336.344.602.748.786 1.19.179.43.272.892.274 1.358v57.487c0 .466-.093.927-.274 1.357a3.689 3.689 0 01-.786 1.19 3.277 3.277 0 01-1.19.75 3.585 3.585 0 01-1.357.261h-57.203a3.567 3.567 0 01-3.571-3.474V85.702c0-.466.093-.927.274-1.356a3.57 3.57 0 013.297-2.13v0z" clip-rule="evenodd"/><path fill="#fff" fill-rule="evenodd" stroke="#fff" stroke-linecap="round" stroke-linejoin="round" d="M119.214 84.988h37.465a3.57 3.57 0 012.535 1.047c.335.341.599.746.774 1.19.183.433.272.9.262 1.369v52.109a3.57 3.57 0 01-3.571 3.57h-37.465a3.57 3.57 0 01-3.571-3.57V88.534c.001-.473.094-.942.274-1.38.176-.444.439-.85.774-1.19a3.715 3.715 0 011.19-.785c.435-.177.9-.266 1.369-.262l-.036.071z" clip-rule="evenodd"/><path fill="#fff" fill-rule="evenodd" d="M119.762 92.759l26.94-.06-26.94.06z" clip-rule="evenodd"/><path stroke="#F7A501" stroke-linecap="round" stroke-linejoin="round" d="M119.762 92.759l26.94-.06"/><path fill="#fff" fill-rule="evenodd" d="M119.917 95.984l26.94-.06-26.94.06z" clip-rule="evenodd"/><path stroke="#F7A501" stroke-linecap="round" stroke-linejoin="round" d="M119.917 95.984l26.94-.06"/><path fill="#fff" fill-rule="evenodd" d="M119.762 99.565l26.94-.071-26.94.071z" clip-rule="evenodd"/><path stroke="#F7A501" stroke-linecap="round" stroke-linejoin="round" d="M119.762 99.565l26.94-.071"/><path fill="#fff" fill-rule="evenodd" d="M119.762 103.23l26.94-.071-26.94.071z" clip-rule="evenodd"/><path stroke="#F7A501" stroke-linecap="round" stroke-linejoin="round" d="M119.762 103.23l26.94-.071"/><path fill="#fff" fill-rule="evenodd" stroke="#F7A501" stroke-linecap="round" stroke-linejoin="round" d="M123.619 106.301h19.952a3.576 3.576 0 013.584 3.582v22.609a3.567 3.567 0 01-1.048 2.535 3.583 3.583 0 01-2.536 1.059h-19.952a3.573 3.573 0 01-3.572-3.57v-22.61a3.57 3.57 0 013.572-3.57v-.035zm-20.655-8.163h7.977a.991.991 0 01.643.25c.084.083.15.185.19.297a.837.837 0 010 .678.72.72 0 01-.19.298.936.936 0 01-.286.19.858.858 0 01-.345.071h-7.917a.925.925 0 01-.631-.262.94.94 0 01-.262-.63 1.01 1.01 0 01.262-.63.892.892 0 01.631-.263h-.072zm.203 4.188h7.988a.694.694 0 01.345.06c.11.045.211.109.298.19a.93.93 0 01.178.298.85.85 0 01.072.345.893.893 0 01-.881.892h-7.988a.893.893 0 01-.881-.892.695.695 0 010-.345.86.86 0 01.178-.298.624.624 0 01.274-.19.704.704 0 01.345-.084l.072.024zm0 4.653h7.988a.893.893 0 010 1.785h-7.988a.894.894 0 01-.881-.893.797.797 0 01.071-.333.579.579 0 01.191-.285.852.852 0 01.619-.274v0zm-.131 4.391h7.976a.998.998 0 01.619.262.983.983 0 01.274.642 1.035 1.035 0 01-.262.631.916.916 0 01-.286.19.871.871 0 01-.345 0h-7.976a.836.836 0 01-.345 0 .916.916 0 01-.286-.19.92.92 0 01-.262-.631c0-.118.024-.236.071-.345a.799.799 0 01.191-.297.936.936 0 01.631-.262v0zm0 4.807h7.976a.934.934 0 01.631.262c.158.174.25.397.262.631a.89.89 0 01-.893.892h-7.976a.892.892 0 110-1.785v0z" clip-rule="evenodd"/></svg>
